docs/img/svg/footer__portfolio-vkontakte.svg

<svg width="24" height="24" viewBox="0 0 24 24" fill="none" xmlns="http://www.w3.org/2000/svg">
<path fill-rule="evenodd" clip-rule="evenodd" d="M3.5 0C1.567 0 0 1.567 0 3.5V20.5C0 22.433 1.567 24 3.5 24H20.5C22.433 24 24 22.433 24 20.5V3.5C24 1.567 22.433 0 20.5 0H3.5ZM17.9368 12.4073C17.729 12.7514 17.6458 12.9227 17.9368 13.3077C17.9586 13.3393 18.0688 13.4552 18.2355 13.6304C18.9398 14.3708 20.6515 16.1702 20.9541 17.1404C21.1176 17.7109 20.8334 18 20.2723 18H18.3043C17.7791 18 17.5142 17.6971 16.941 17.0418C16.6972 16.7631 16.3977 16.4206 15.9987 16.0106C14.8287 14.8516 14.3276 14.7008 14.0366 14.7008C13.5035 14.7008 13.5048 14.8572 13.5173 16.3108C13.5195 16.5688 13.5221 16.8675 13.5221 17.2135C13.5221 17.7109 13.3691 18 12.1158 18C10.0307 18 7.73866 16.6981 6.11111 14.2954C3.66902 10.7754 3 8.111 3 7.57514C3 7.27186 3.11325 7.00079 3.67502 7.00079H5.64384C6.14861 7.00079 6.33837 7.22707 6.53262 7.78729C7.49491 10.6748 9.11871 13.1977 9.78773 13.1977C10.039 13.1977 10.1522 13.0775 10.1522 12.4238V9.44043C10.1068 8.5904 9.81858 8.22292 9.60512 7.95076C9.47329 7.78268 9.36997 7.65095 9.36997 7.46436C9.36997 7.24043 9.55673 7 9.87099 7H12.9656C13.3804 7 13.5206 7.23021 13.5206 7.74564V11.7567C13.5206 12.1865 13.7119 12.3374 13.8349 12.3374C14.0846 12.3374 14.2961 12.1865 14.7537 11.7159C16.1712 10.0871 17.1732 7.57436 17.1732 7.57436C17.297 7.27107 17.528 7 18.029 7H19.9971C20.5919 7 20.7149 7.31586 20.5919 7.74564L20.5904 7.74643C20.3428 8.92579 17.9405 12.4034 17.9368 12.4073Z" fill="white"/>
</svg>

<svg width="24" height="24" fill="none" xmlns="http://www.w3.org/2000/svg"><path fill-rule="evenodd" clip-rule="evenodd" d="M3.5 0A3.5 3.5 0 000 3.5v17A3.5 3.5 0 003.5 24h17a3.5 3.5 0 003.5-3.5v-17A3.5 3.5 0 0020.5 0h-17zm14.437 12.407c-.208.344-.291.516 0 .9.022.032.132.148.298.323.705.74 2.416 2.54 2.72 3.51.163.57-.122.86-.683.86h-1.968c-.525 0-.79-.303-1.363-.958-.244-.279-.543-.621-.942-1.031-1.17-1.16-1.671-1.31-1.962-1.31-.534 0-.532.156-.52 1.61.003.258.005.556.005.902 0 .498-.153.787-1.406.787-2.085 0-4.377-1.302-6.005-3.705C3.67 10.775 3 8.111 3 7.575c0-.303.113-.574.675-.574h1.969c.505 0 .694.226.889.786.962 2.888 2.586 5.41 3.255 5.41.251 0 .364-.12.364-.773V9.44c-.045-.85-.333-1.217-.547-1.49-.132-.167-.235-.3-.235-.486A.48.48 0 019.871 7h3.095c.414 0 .555.23.555.746v4.01c0 .43.19.581.314.581.25 0 .461-.15.919-.621 1.417-1.629 2.42-4.142 2.42-4.142.123-.303.354-.574.855-.574h1.968c.595 0 .718.316.595.746h-.002c-.247 1.18-2.65 4.657-2.653 4.661z" fill="#fff"/></svg>
